color/svg/1F6FA.svg

<svg id="emoji" viewBox="0 0 72 72" xmlns="http://www.w3.org/2000/svg">
  <g id="color">
    <path fill="#fff" d="m21.1281,18.9106s1.3542,23.9889,7.4804,25.4076l34.7581-1.2897.0645-22.1833s-.2579-1.5477-1.8056-1.8056-40.4974-.129-40.4974-.129Z"/>
    <path fill="#6a462f" d="m20.2992,19s-1.1617,18.5109,9.2929,25.5631h-10.5921s-7.0974-7.155,1.2992-25.5631Z"/>
    <polygon fill="#6a462f" points="44 38 64.22 38 64.22 43.514 43 43.514 43 38 44 38"/>
    <circle cx="17.0818" cy="49.5632" r="5.0001" fill="#d0cfce"/>
    <circle cx="54.6092" cy="49.5632" r="5.0001" fill="#d0cfce"/>
  </g>
  <g id="line">
    <polyline fill="none" stroke="#000" stroke-linecap="round" stroke-linejoin="round" stroke-width="2" points="23.718 37 27.588 37 28.389 29.575"/>
    <path fill="none" stroke="#000" stroke-linecap="round" stroke-linejoin="round" stroke-width="2.0875" d="m64.22,44.5631H19l-1.5978-2.9631c-.9203-1.7066-1.4022-3.6152-1.4022-5.5542v-.7653c-.0462-1.5163.1564-3.0298.6-4.4805l2.4-8.8c0-1.4712,1.5288-4,3-4l39.5557.3893c1.4712-.0003,2.664,1.1921,2.6643,2.6633v23.5105Z"/>
    <line x1="45.7985" x2="25.2182" y1="48.4706" y2="48.4706" fill="none" stroke="#000" stroke-linecap="round" stroke-linejoin="round" stroke-width="2"/>
    <circle cx="17.0818" cy="49.5632" r="5.0001" fill="none" stroke="#000" stroke-linecap="round" stroke-linejoin="round" stroke-width="2"/>
    <circle cx="54.6092" cy="49.5632" r="5.0001" fill="none" stroke="#000" stroke-linecap="round" stroke-linejoin="round" stroke-width="2"/>
    <line x1="43" x2="43" y1="19" y2="44" fill="none" stroke="#000" stroke-linecap="round" stroke-linejoin="round" stroke-width="2.0875"/>
    <line x1="44" x2="64.2195" y1="35" y2="35" fill="none" stroke="#000" stroke-linecap="round" stroke-linejoin="round" stroke-width="2.0875"/>
    <polygon fill="none" stroke="#000" stroke-linecap="round" stroke-linejoin="round" stroke-width="2.0875" points="44 38 64.22 38 64.22 43.514 43 43.514 43 38 44 38"/>
    <line x1="61" x2="62" y1="37" y2="32" fill="none" stroke="#000" stroke-linecap="round" stroke-linejoin="round" stroke-width="2.0875"/>
    <path fill="none" stroke="#000" stroke-linecap="round" stroke-linejoin="round" stroke-width="2" d="m20.2992,19s-1.1617,18.5109,9.2929,25.5631"/>
    <line x1="25.6419" x2="25.6419" y1="37" y2="39.7847" fill="none" stroke="#000" stroke-linecap="round" stroke-linejoin="round" stroke-width="2"/>
    <path d="m60.072,44.5631h0c0-.5795.4697-1.0492,1.0492-1.0492h4.1967c.5794,0,1.0491.4698,1.0492,1.0492h0c0,.5795-.4697,1.0492-1.0492,1.0492h-4.1967c-.5794,0-1.0491-.4696-1.0492-1.049v-.0002Z"/>
    <path fill="none" stroke="#000" stroke-linecap="round" stroke-linejoin="round" stroke-width="2" d="m18,42.5319c-2.4819-1.901-4.8514.3691-5,.4681"/>
  </g>
</svg>

<svg id="emoji" viewBox="0 0 72 72" xmlns="http://www.w3.org/2000/svg">
  <g id="color">
    <path fill="#6a462f" d="M20.2992,19s-1.1617,18.5109,9.2929,25.5631H19S11.9026,37.4081,20.2992,19Z"/>
    <polygon fill="#6a462f" points="44 38 64.22 38 64.22 43.514 43 43.514 43 38 44 38"/>
    <circle cx="17.0818" cy="49.5632" r="5.0001" fill="#d0cfce"/>
    <circle cx="54.6092" cy="49.5632" r="5.0001" fill="#d0cfce"/>
  </g>
  <g id="line">
    <polyline fill="none" stroke="#000" stroke-linecap="round" stroke-linejoin="round" stroke-width="2" points="23.718 37 27.588 37 28.389 29.575"/>
    <path fill="none" stroke="#000" stroke-linecap="round" stroke-linejoin="round" stroke-width="2.0875" d="M64.22,44.5631H19L17.4022,41.6A11.7019,11.7019,0,0,1,16,36.0458v-.7653A13.8765,13.8765,0,0,1,16.6,30.8L19,22c0-1.4712,1.5288-4,3-4l39.5557.3893A2.6638,2.6638,0,0,1,64.22,21.0531Z"/>
    <line x1="45.7985" x2="25.2182" y1="48.4706" y2="48.4706" fill="none" stroke="#000" stroke-linecap="round" stroke-linejoin="round" stroke-width="2"/>
    <circle cx="17.0818" cy="49.5632" r="5.0001" fill="none" stroke="#000" stroke-linecap="round" stroke-linejoin="round" stroke-width="2"/>
    <circle cx="54.6092" cy="49.5632" r="5.0001" fill="none" stroke="#000" stroke-linecap="round" stroke-linejoin="round" stroke-width="2"/>
    <line x1="43" x2="43" y1="19" y2="44" fill="none" stroke="#000" stroke-linecap="round" stroke-linejoin="round" stroke-width="2.0875"/>
    <line x1="44" x2="64.2195" y1="35" y2="35" fill="none" stroke="#000" stroke-linecap="round" stroke-linejoin="round" stroke-width="2.0875"/>
    <polygon fill="none" stroke="#000" stroke-linecap="round" stroke-linejoin="round" stroke-width="2.0875" points="44 38 64.22 38 64.22 43.514 43 43.514 43 38 44 38"/>
    <line x1="61" x2="62" y1="37" y2="32" fill="none" stroke="#000" stroke-linecap="round" stroke-linejoin="round" stroke-width="2.0875"/>
    <path fill="none" stroke="#000" stroke-linecap="round" stroke-linejoin="round" stroke-width="2" d="M20.2992,19s-1.1617,18.5109,9.2929,25.5631"/>
    <line x1="25.6419" x2="25.6419" y1="37" y2="39.7847" fill="none" stroke="#000" stroke-linecap="round" stroke-linejoin="round" stroke-width="2"/>
    <path d="M60.072,44.5631h0a1.0492,1.0492,0,0,1,1.0492-1.0492h4.1967a1.0493,1.0493,0,0,1,1.0492,1.0492h0a1.0492,1.0492,0,0,1-1.0492,1.0492H61.1212A1.0491,1.0491,0,0,1,60.072,44.5631Z"/>
    <path fill="none" stroke="#000" stroke-linecap="round" stroke-linejoin="round" stroke-width="2" d="M18,42.5319c-2.4819-1.901-4.8514.3691-5,.4681"/>
  </g>
</svg>
